X: 1
T: N\aa er det jul igjen [D]
O: Trad Danmark
Z: John Chambers <jc:trillian.mit.edu>
M: 3/4
L: 1/8
K: D
|: "D"dd/d/ dA FA | dd/d/ dA FA | d>c de fg | "A7"a2 a2 z2 :|
|: "G"g>g bg gg | "D"f>f af ff | "A7"e>f ge Bc |1 "D"de fg a2 :|2 "D"e2 d2 z2 |]


%%sep 3 1 500

